X:87
T:Happy Days of Youth, The
S:Liam O'Flynn "McKenna's #2"
R:Reel
M:4/4
L:1/8
K:Em
e3d BdBA | GABG AGED | G3B dBeB | dBAc BGG2 |
efed BdBA | GABG AGED | G3B dBeB | dBAc BGG2 ||
faaf gfed | (3B^cd ef g2gf | eBB2 gfed | BAGA B^cde |
faaf gfed | (3B^cd ef g2ga | bgaf gfed | (3efg fa g2gf ||

%%newpage
%%scale .75
%%staffsep 35

